icons/media/pause-circle-fill-24.svg

<svg width="24" height="24" viewBox="0 0 24 24" fill="none" xmlns="http://www.w3.org/2000/svg">
<path fill-rule="evenodd" clip-rule="evenodd" d="M12 1C5.925 1 1 5.925 1 12C1 18.075 5.925 23 12 23C18.075 23 23 18.075 23 12C23 5.925 18.075 1 12 1ZM15 7.75C15 7.33579 14.6642 7 14.25 7C13.8358 7 13.5 7.33579 13.5 7.75V16.25C13.5 16.6642 13.8358 17 14.25 17C14.6642 17 15 16.6642 15 16.25V7.75ZM9.75 7C10.1642 7 10.5 7.33579 10.5 7.75V16.25C10.5 16.6642 10.1642 17 9.75 17C9.33579 17 9 16.6642 9 16.25V7.75C9 7.33579 9.33579 7 9.75 7Z" fill="black"/>
</svg>

<svg xmlns="http://www.w3.org/2000/svg" width="24" height="24"><path fill-rule="evenodd" d="M12 1C5.925 1 1 5.925 1 12s4.925 11 11 11 11-4.925 11-11S18.075 1 12 1zm3 6.75a.75.75 0 00-1.5 0v8.5a.75.75 0 001.5 0v-8.5zM9.75 7a.75.75 0 01.75.75v8.5a.75.75 0 01-1.5 0v-8.5A.75.75 0 019.75 7z"/></svg>
